www/assets/icons/vpn_key_off.svg

<svg width="24" height="24" viewBox="0 0 24 24" xmlns="http://www.w3.org/2000/svg" fill='currentColor'><path d="M20.83 17.2901H21V13.2901H23V9.2901H12.83L20.83 17.2901ZM19.78 21.9001L21.19 20.4901L2.81 2.1001L1.39 3.5101L3.98 6.1001C2.2 7.1401 1 9.0801 1 11.2901C1 14.6001 3.69 17.2901 7 17.2901C9.21 17.2901 11.15 16.0901 12.18 14.3001L19.78 21.9001ZM8.99 11.1101C9 11.1701 9 11.2301 9 11.2901C9 12.3901 8.1 13.2901 7 13.2901C5.9 13.2901 5 12.3901 5 11.2901C5 10.1901 5.9 9.2901 7 9.2901C7.06 9.2901 7.12 9.2901 7.18 9.3001L8.99 11.1101Z"/></svg>

<svg xmlns="http://www.w3.org/2000/svg" width="24" height="24" viewBox="0 0 24 24" fill='currentColor'><path d="M20.83 17.29H21v-4h2v-4H12.83zm-1.05 4.61 1.41-1.41L2.81 2.1 1.39 3.51 3.98 6.1A6.01 6.01 0 0 0 1 11.29c0 3.31 2.69 6 6 6 2.21 0 4.15-1.2 5.18-2.99zM8.99 11.11c.01.06.01.12.01.18 0 1.1-.9 2-2 2s-2-.9-2-2 .9-2 2-2c.06 0 .12 0 .18.01z"/></svg>
